design/star-plus-outline.svg

<?xml version="1.0" encoding="utf-8"?>
<!-- Generator: Adobe Illustrator 23.0.3, SVG Export Plug-In . SVG Version: 6.00 Build 0)  -->
<svg version="1.1" id="Layer_1" xmlns="http://www.w3.org/2000/svg" xmlns:xlink="http://www.w3.org/1999/xlink" x="0px" y="0px"
	 viewBox="0 0 24 24" style="enable-background:new 0 0 24 24;" xml:space="preserve">
<style type="text/css">
	.st0{fill:url(#SVGID_1_);}
</style>
<linearGradient id="SVGID_1_" gradientUnits="userSpaceOnUse" x1="3.7758" y1="7.7502" x2="19.9108" y2="19.4636">
	<stop  offset="0" style="stop-color:#8E2DE2"/>
	<stop  offset="1" style="stop-color:#4A00E0"/>
</linearGradient>
<path class="st0" d="M5.8,21l1.6-7L2,9.2l7.2-0.6L12,2l2.8,6.6L22,9.2L18.8,12H18c-0.7,0-1.4,0.1-2.1,0.4l2.2-1.9l-4.4-0.4l-1.7-4
	l-1.7,4l-4.4,0.4l3.3,2.9l-1,4.3l3.8-2.3l0.5,0.3c-0.2,0.5-0.4,1.1-0.4,1.6L5.8,21 M17,14v3h-3v2h3v3h2v-3h3v-2h-3v-3H17z"/>
</svg>

<?xml version="1.0" encoding="UTF-8"?><!DOCTYPE svg PUBLIC "-//W3C//DTD SVG 1.1//EN" "http://www.w3.org/Graphics/SVG/1.1/DTD/svg11.dtd"><svg xmlns="http://www.w3.org/2000/svg" xmlns:xlink="http://www.w3.org/1999/xlink" version="1.1" width="24" height="24" viewBox="0 0 24 24"><path d="M5.8 21L7.4 14L2 9.2L9.2 8.6L12 2L14.8 8.6L22 9.2L18.8 12H18C17.3 12 16.6 12.1 15.9 12.4L18.1 10.5L13.7 10.1L12 6.1L10.3 10.1L5.9 10.5L9.2 13.4L8.2 17.7L12 15.4L12.5 15.7C12.3 16.2 12.1 16.8 12.1 17.3L5.8 21M17 14V17H14V19H17V22H19V19H22V17H19V14H17Z" /></svg>
